X: 2713
T: Banks Of Lough Gowna, The
R: jig
M: 6/8
K: Aminor
|:~A3 AGE|EDE CEG|~A3 AGE|c2d ecA|
~A3 AGE|EDE CEG|cde fed|1 ecA A2G:|2 ecA A2B||
|:cde g2a|gea ged|cEG cde|fed ecA|
cde g2a|gea ged|cde fed|1 ecA A2B:|2 ecA A3||

